X:035
%%topmargin 3cm
T:Mountain Ranger
B:The Nelson Music Collection
N:Newton F. Tolman & K. Dep. Gilbert
Z:Transcribed by Ralph Palmer
R:Hornpipe
L:1/16
M:2/4
K:Bb
FE | DFBc d2cd | edcB G2FE | DFBc d((3B/2c/2B/2)AB | gfdB c2FE |
DFBc d2cd | edcB G2FE | DFBd cBAc | B2d2 B2 ::
Bc | d((3B/2c/2B/2)AB GBFB | CFBc d((3B/2c/2B/2)AB | gBfB edcB | GccB ABce |
d((3B/2c/2B/2)AB GBFB | DFBc d((3B/2c/2B/2)AB | gBfB edcB | AFGA B2 :|]
